X: 77
M:C|
L:1/8
K:Bb
u((3FGA)|\
vB>fd>B A>ec>A | B>fd>B F2B>A | G>Be>d c>BA>G | F>f=e>f g>f_e>c |
|:u(c>.B)|\
 f>=ef>g f>ec>_e |
d>^cd>=c =B>df>d | c>dc>_B A>BA>F | B>df>b g>_ec>A | B>df>b B2 :|


